X: 1
T: Miss Gordon of Park    [F]
C: William Marshall
R: jig
B: BSFC Session Tune Book 2016 p.65
S: Handwritten MS by Barbara McOwen
Z: 2019 John Chambers <jc:trillian.mit.edu>
M: 6/8
L: 1/8
K: F
"A"[|] G |\
"F"F2F cAF | "F7"FGF "Bb"d3 | "F"cAF F2A | "C"GEC "C7"CDE |\
"F"F2F cAF | "F"FGF "Dm"a2a | "C"ga"F"f "G7"efd | "Csus"cdB "C7"ABG |
"F"F2F cAF | "F7"FGF "Bb"d3 | "F"cAF "Dm"F2A | "Gm7"GEC "C7"CDE |\
"F"F2F cAF | "F"FGF "Dm"a2a | "C"ga"F"f "G7"efd | "C"c3 "C7"c2 |]
"B"[|] c |\
"C"c2c "C7"gec | "F"cdc c2a | "C7"b2g "F"a2f | "G7"g2f "C"edc |\
"C"c2c "C7"gec | "F"cdc "Bb"b3 | "F"agf "C7"cde | "F"f3 f2c |
"C"c2c "C7"gec | "F"cdc c2a | "C7"b2g "F"a2f | "G7"g2f "C"edc |\
"F"f3 "F7"cAc | "Bb"d3 "Gm7"B2d | "F"cBA "C7"GFE | "F"F3 F2 
